vendor/shopware/storefront/Resources/app/storefront/dist/assets/icon/default/video-camera.svg

<svg xmlns="http://www.w3.org/2000/svg" width="24" height="24" viewBox="0 0 24 24">
  <path fill="#758CA3" fill-rule="evenodd" d="M5,8 C5.55228475,8 6,8.44771525 6,9 C6,9.55228475 5.55228475,10 5,10 C4.44771525,10 4,9.55228475 4,9 C4,8.44771525 4.44771525,8 5,8 Z M18,7.61257411 L22.6837722,6.0513167 C23.3313033,5.835473 24,6.31744227 24,7 L24,17 C24,17.6825577 23.3313033,18.164527 22.6837722,17.9486833 L18,16.3874259 L18,17 C18,18.6568542 16.6568542,20 15,20 L3,20 C1.34314575,20 -6.85272294e-16,18.6568542 -8.8817842e-16,17 L-3.94430453e-31,7 C-2.02906125e-16,5.34314575 1.34314575,4 3,4 L15,4 C16.6568542,4 18,5.34314575 18,7 L18,7.61257411 Z M18,9.72075922 L18,14.2792408 L22,15.6125741 L22,8.38742589 L18,9.72075922 Z M16,8.97665767 L16,7 C16,6.44771525 15.5522847,6 15,6 L3,6 C2.44771525,6 2,6.44771525 2,7 L2,17 C2,17.5522847 2.44771525,18 3,18 L15,18 C15.5522847,18 16,17.5522847 16,17 L16,15.0233423 C15.9996392,15.0079159 15.9996373,14.9924449 16,14.9769407 L16,9.02305932 C15.9996373,9.00755508 15.9996392,8.99208413 16,8.97665767 Z"/>
</svg>

<svg xmlns="http://www.w3.org/2000/svg" width="24" height="24" viewBox="0 0 24 24"><path fill="#758CA3" fill-rule="evenodd" d="M5 8c.5523 0 1 .4477 1 1s-.4477 1-1 1-1-.4477-1-1 .4477-1 1-1zm13-.3874 4.6838-1.5613C23.3313 5.8355 24 6.3174 24 7v10c0 .6826-.6687 1.1645-1.3162.9487L18 16.3874V17c0 1.6569-1.3431 3-3 3H3c-1.6569 0-3-1.3431-3-3V7c0-1.6569 1.3431-3 3-3h12c1.6569 0 3 1.3431 3 3v.6126zm0 2.1082v4.5584l4 1.3334V8.3874l-4 1.3334zm-2-.7441V7c0-.5523-.4477-1-1-1H3c-.5523 0-1 .4477-1 1v10c0 .5523.4477 1 1 1h12c.5523 0 1-.4477 1-1v-1.9767a.9921.9921 0 0 1 0-.0464V9.0231a.9921.9921 0 0 1 0-.0464z"/></svg>
